dist/assets/images/linking-3.svg

<?xml version="1.0" encoding="UTF-8"?>
<svg width="532px" height="259px" viewBox="0 0 532 259" version="1.1" xmlns="http://www.w3.org/2000/svg" xmlns:xlink="http://www.w3.org/1999/xlink">
    <!-- Generator: Sketch 41.2 (35397) - http://www.bohemiancoding.com/sketch -->
    <title>Page 1</title>
    <desc>Created with Sketch.</desc>
    <defs></defs>
    <g id="LP:-Верстка" stroke="none" stroke-width="1" fill="none" fill-rule="evenodd" opacity="0.246909981">
        <g id="Сквозное-меню" transform="translate(-334.000000, -173.000000)" fill="#D9E8F5">
            <g id="Page-1" transform="translate(334.000000, 173.000000)">
                <path d="M398.84,69.7396 C362.634,69.7396 343.466,63.0356 326.552,57.1216 C310.922,51.6536 296.156,46.4916 265.886,46.4916 C235.62,46.4916 220.856,51.6536 205.224,57.1216 C188.314,63.0356 169.146,69.7396 132.942,69.7396 C96.738,69.7396 77.57,63.0356 60.66,57.1216 C45.03,51.6536 30.266,46.4916 0,46.4916 L0,-0.0004 C36.206,-0.0004 55.372,6.7036 72.28,12.6176 C87.912,18.0836 102.674,23.2456 132.942,23.2456 C163.212,23.2456 177.974,18.0836 193.604,12.6176 C210.516,6.7036 229.682,-0.0004 265.886,-0.0004 C302.096,-0.0004 321.262,6.7036 338.174,12.6176 C353.806,18.0836 368.572,23.2456 398.84,23.2456 C429.11,23.2456 443.876,18.0836 459.506,12.6176 C476.418,6.7036 495.586,-0.0004 531.794,-0.0004 L531.794,46.4916 C501.524,46.4916 486.76,51.6536 471.126,57.1216 C454.214,63.0356 435.048,69.7396 398.84,69.7396" id="Fill-1"></path>
                <path d="M398.84,164.2728 C362.634,164.2728 343.466,157.5688 326.552,151.6548 C310.922,146.1888 296.156,141.0268 265.886,141.0268 C235.62,141.0268 220.856,146.1888 205.224,151.6548 C188.314,157.5688 169.146,164.2728 132.942,164.2728 C96.738,164.2728 77.57,157.5688 60.66,151.6548 C45.03,146.1888 30.266,141.0268 0,141.0268 L0,94.5348 C36.206,94.5348 55.372,101.2368 72.28,107.1508 C87.912,112.6188 102.674,117.7808 132.942,117.7808 C163.212,117.7808 177.974,112.6188 193.604,107.1508 C210.516,101.2368 229.682,94.5348 265.886,94.5348 C302.096,94.5348 321.262,101.2368 338.174,107.1508 C353.806,112.6188 368.572,117.7808 398.84,117.7808 C429.11,117.7808 443.876,112.6188 459.506,107.1508 C476.418,101.2368 495.586,94.5348 531.794,94.5348 L531.794,141.0268 C501.524,141.0268 486.76,146.1888 471.126,151.6548 C454.214,157.5688 435.048,164.2728 398.84,164.2728" id="Fill-4"></path>
                <path d="M398.84,258.808 C362.634,258.808 343.466,252.104 326.552,246.19 C310.922,240.724 296.156,235.562 265.886,235.562 C235.62,235.562 220.856,240.724 205.224,246.19 C188.314,252.104 169.146,258.808 132.942,258.808 C96.738,258.808 77.57,252.104 60.66,246.19 C45.03,240.724 30.266,235.562 0,235.562 L0,189.068 C36.206,189.068 55.372,195.772 72.28,201.686 C87.912,207.152 102.674,212.316 132.942,212.316 C163.212,212.316 177.974,207.152 193.604,201.686 C210.516,195.772 229.682,189.068 265.886,189.068 C302.096,189.068 321.262,195.772 338.174,201.686 C353.806,207.152 368.572,212.316 398.84,212.316 C429.11,212.316 443.876,207.152 459.506,201.686 C476.418,195.772 495.586,189.068 531.794,189.068 L531.794,235.562 C501.524,235.562 486.76,240.724 471.126,246.19 C454.214,252.104 435.048,258.808 398.84,258.808" id="Fill-7"></path>
            </g>
        </g>
    </g>
</svg>

<svg width="532" height="259" viewBox="0 0 532 259" xmlns="http://www.w3.org/2000/svg"><title>Page 1</title><path d="M398.84 69.74c-36.206 0-55.374-6.704-72.288-12.618-15.63-5.468-30.396-10.63-60.666-10.63-30.266 0-45.03 5.162-60.662 10.63-16.91 5.914-36.078 12.618-72.282 12.618-36.204 0-55.372-6.704-72.282-12.618C45.03 51.654 30.266 46.492 0 46.492V0c36.206 0 55.372 6.704 72.28 12.618 15.632 5.466 30.394 10.628 60.662 10.628 30.27 0 45.032-5.162 60.662-10.628C210.516 6.704 229.682 0 265.886 0c36.21 0 55.376 6.704 72.288 12.618 15.632 5.466 30.398 10.628 60.666 10.628 30.27 0 45.036-5.162 60.666-10.628C476.418 6.704 495.586 0 531.794 0v46.492c-30.27 0-45.034 5.162-60.668 10.63-16.912 5.914-36.078 12.618-72.286 12.618m0 94.533c-36.206 0-55.374-6.704-72.288-12.618-15.63-5.466-30.396-10.628-60.666-10.628-30.266 0-45.03 5.162-60.662 10.628-16.91 5.914-36.078 12.618-72.282 12.618-36.204 0-55.372-6.704-72.282-12.618-15.63-5.466-30.394-10.628-60.66-10.628V94.535c36.206 0 55.372 6.702 72.28 12.616 15.632 5.468 30.394 10.63 60.662 10.63 30.27 0 45.032-5.162 60.662-10.63 16.912-5.914 36.078-12.616 72.282-12.616 36.21 0 55.376 6.702 72.288 12.616 15.632 5.468 30.398 10.63 60.666 10.63 30.27 0 45.036-5.162 60.666-10.63 16.912-5.914 36.08-12.616 72.288-12.616v46.492c-30.27 0-45.034 5.162-60.668 10.628-16.912 5.914-36.078 12.618-72.286 12.618m0 94.535c-36.206 0-55.374-6.704-72.288-12.618-15.63-5.466-30.396-10.628-60.666-10.628-30.266 0-45.03 5.162-60.662 10.628-16.91 5.914-36.078 12.618-72.282 12.618-36.204 0-55.372-6.704-72.282-12.618-15.63-5.466-30.394-10.628-60.66-10.628v-46.494c36.206 0 55.372 6.704 72.28 12.618 15.632 5.466 30.394 10.63 60.662 10.63 30.27 0 45.032-5.164 60.662-10.63 16.912-5.914 36.078-12.618 72.282-12.618 36.21 0 55.376 6.704 72.288 12.618 15.632 5.466 30.398 10.63 60.666 10.63 30.27 0 45.036-5.164 60.666-10.63 16.912-5.914 36.08-12.618 72.288-12.618v46.494c-30.27 0-45.034 5.162-60.668 10.628-16.912 5.914-36.078 12.618-72.286 12.618" fill="#D9E8F5" fill-rule="evenodd" opacity=".247"/></svg>
